X:1
T:Title
%%score { ( 1 4 ) | ( 2 3 ) }
L:1/8
M:4/4
K:Eb
V:1 treble nm="Grand Piano"
V:4 treble 
V:2 bass 
V:3 bass 
V:1
 z4 z2[Q:1/4=110] [GB]A | G2 G2 G2 [GB]2 | [GB]2 [FA]4 [FA][EG] | [DF]2 [FA]2 [Ac]2 [GB]2 | %4
 G6 z F | G2 G2 G2 [GB]2 | [GB]2 [FA]4 [FA]G | F2 B2 d2 c2 | [DB]6 [FA][EG] | %9
 [DF]2 [EG]2 [FA]2 [DF]2 | [EG]2 [GB]4 G2 | A2 G2 [EA]2 [EB]2 | c6 [Ad]2 | %13
 [Ge]2 [GB]2 [GB]2 [EG]2 | [EG]2 [DF]4 [FB]2 | d2 c2 B2 =A2 |[M:3/4] [DFB]6 |[M:1/4] [B,GB]2 | %18
[M:4/4] [Ge]2 [GB][GB] [GB]2 [EG]2 | [EG]2 [DF]4 [DF][EG] | [FA]2 [Ac]2 [GB]2 [FA]2 | G6 GF | %22
 E2 EE [DF]2 [DF][DF] |[M:9/8] [EG]2 [GB]- [GB] c2- cBA |[M:4/4] G2 G2 [DF]2 [DF]2 |[M:3/4] E6 |] %26
V:2
 z4 z2 z F | [E,B,E]2 [E,B,E]2 [E,B,E]2 [E,B,]2 | [B,,B,]2 [B,,B,]4 [B,,B,]2 | %3
 [B,,B,]2 [B,,B,]2 [B,,B,]2 [B,,B,]2 | [E,B,E]6 E,-[E,A,] | [E,B,E]2 [E,B,E]2 [E,B,E]2 [E,B,]2 | %6
 z4 z2 B,2 | [F,B,D]2 [F,B,D]2 [F,B,F]2 [F,=A,E]2 | [B,,B,]6 [B,,B,]2 | %9
 [B,,B,]2 [B,,B,]2 [B,,B,]2 [B,,B,]2 | [E,B,]2 [E,E]4 [E,B,E]2 | [E,CE]2 [E,B,E]2 [C,A,]2 [D,G,]2 | %12
 [A,E]6 [F,B,]2 | [E,B,]2 [E,E]2 [E,E]2 [E,B,]2 | [B,,B,]2 [B,,B,]4 [D,B,]2 | %15
 [F,B,F]2 [F,EF]2 [F,DF]2 [F,CF]2 |[M:3/4] B,,6 |[M:1/4] E,2 | %18
[M:4/4] [E,B,]2 [E,E][E,E] [E,E]2 [E,B,]2 | [B,,B,]2 [B,,B,]4 [B,,B,][B,,B,] | %20
 [B,,B,]2 [B,,B,]2 [B,,B,]2 [D,B,]2 | [E,B,E]6 [E,B,E][E,A,E] | %22
 [E,G,]2 [E,G,][E,G,] [B,,B,]2 [B,,B,][B,,B,] | %23
[M:9/8] [E,B,]2 [E,E]- [E,E][K:treble] [A,EA]2- [A,EA][G,E][A,CF] | %24
[M:4/4][K:bass] [B,E]2 [B,E]2 [B,,B,]2 [B,,A,]2 |[M:3/4] [E,G,]6 |] %26
V:3
 z4 z2 [E,B,]2 | x8 | x8 | x8 | z4 z2 .G,2 | x8 | [B,,B,]2 [B,,B,]4 D,[E,E] | x8 | x8 | x8 | x8 | %11
 x8 | x8 | x8 | x8 | x8 |[M:3/4] x6 |[M:1/4] x2 |[M:4/4] x8 | x8 | x8 | x8 | x8 | %23
[M:9/8] x4[K:treble] x5 |[M:4/4][K:bass] x8 |[M:3/4] x6 |] %26
V:4
 x8 | x8 | x8 | x8 | z4 z2 E2 | x8 | x8 | x8 | x8 | x8 | x8 | x8 | x8 | x8 | x8 | x8 |[M:3/4] x6 | %17
[M:1/4] x2 |[M:4/4] x8 | x8 | x8 | x8 | x8 |[M:9/8] x9 |[M:4/4] x8 |[M:3/4] x6 |] %26

